dest/img/img-trust-18.svg

<svg width="138" height="28" viewBox="0 0 138 28" fill="none" xmlns="http://www.w3.org/2000/svg">
<g clip-path="url(#clip0)">
<path d="M4.1007 16.1979H0.866699V22.0779H4.1007V16.1979Z" fill="#576472"/>
<path d="M13.0492 1.078C11.3128 0.154 10.1086 0 7.26601 0H0.866699V13.384H7.23801C9.77253 13.384 11.6629 13.23 13.3293 12.124C15.1496 10.92 16.0878 8.918 16.0878 6.608C16.0878 4.102 14.9256 2.1 13.0492 1.078ZM7.98016 10.584H4.10136V2.87L7.75611 2.842C11.0888 2.8 12.7551 3.976 12.7551 6.636C12.7551 9.492 10.6967 10.584 7.98016 10.584Z" fill="#576472"/>
<path d="M133.964 5.86617L130.883 14.6022C130.323 16.1702 130.043 17.0662 129.525 18.5782H129.469C129.063 17.2762 128.685 16.2262 128.167 14.6862L125.184 5.85217H121.599L127.803 22.0642C127.663 22.4142 127.523 22.7782 127.369 23.1562C126.85 24.4162 125.618 25.2422 124.26 25.2422H122.72V28.0002H124.302C126.864 28.0002 129.175 26.4322 130.127 24.0522C132.102 19.1102 135.462 10.6962 137.381 5.86617H133.964Z" fill="#576472"/>
<path d="M47.9444 18.9561C47.9444 24.8221 45.2558 28.0001 39.8227 28.0001C35.7759 28.0001 33.3394 25.8721 32.4712 22.6661H35.7479C36.308 24.1501 37.4842 25.4801 39.8787 25.4801C43.5895 25.4801 44.9057 23.1701 44.9057 18.7741C44.8777 18.7741 44.8777 18.7461 44.8497 18.7461C44.0516 20.1321 42.2592 21.3641 39.4166 21.3641C34.8517 21.3641 31.9531 18.0601 31.9531 13.4261C31.9531 8.6101 35.1037 5.3761 39.4586 5.3761C42.2732 5.3761 43.9675 6.5801 44.8917 7.9101C44.8637 7.5741 44.8637 7.2381 44.8637 6.8881V5.8661H47.9444V18.9561ZM35.3418 13.3981C35.3418 16.5481 37.1061 18.8021 40.1308 18.8021C42.8473 18.8021 44.9477 16.8841 44.9477 13.3141C44.9477 10.1361 43.0994 8.0081 40.1308 8.0081C37.1621 8.0081 35.3418 10.1221 35.3418 13.3981Z" fill="#576472"/>
<path d="M53.0553 14.7839C53.1813 17.6259 55.0017 19.8799 58.1523 19.8799C60.3788 19.8799 61.457 18.8299 62.2832 17.4439H65.4058C64.4816 20.3699 61.9191 22.4699 58.0263 22.4699C53.0273 22.4699 49.9047 19.1099 49.9047 14.0419C49.9047 8.97393 53.1393 5.40393 58.0263 5.40393C63.3054 5.40393 65.7419 9.42193 65.7419 13.7759V14.7979L53.0553 14.7839ZM62.4932 12.3199C62.2132 9.75793 60.6028 7.93793 57.9563 7.93793C55.4218 7.93793 53.4754 9.60393 53.1673 12.3199H62.4932Z" fill="#576472"/>
<path d="M70.741 5.86596V7.93796C71.2591 6.42596 72.8414 5.45996 74.6618 5.45996C74.9279 5.45996 75.1939 5.47396 75.46 5.51596V8.35796C75.0959 8.28796 74.7458 8.25996 74.3818 8.25996C71.4411 8.25996 70.895 10.416 70.895 13.664V22.064H67.7724V8.76396C67.7724 7.74196 67.7724 6.84596 67.7444 5.86596H70.741Z" fill="#576472"/>
<path d="M107.526 19.7541C106.686 21.1401 105.118 22.4701 102.373 22.4701C98.6066 22.4701 96.7582 20.1601 96.7582 15.9601V5.86609H99.8668V14.7841C99.8668 17.9621 100.917 19.8801 103.452 19.8801C106.784 19.8801 107.372 16.8561 107.372 13.3001V5.86609H110.495V19.6281C110.495 20.4681 110.495 21.2661 110.523 22.0641H107.526V19.7541Z" fill="#576472"/>
<path d="M117.511 5.86601H120.535V8.27401H117.511V18.004C117.511 19.544 118.281 20.006 119.485 20.006C119.737 20.006 120.003 19.978 120.255 19.95V22.26C119.863 22.33 119.457 22.372 119.051 22.386C116.18 22.386 114.36 21.434 114.36 18.186V8.27401H111.909V5.86601H114.346V1.48401H117.511V5.86601Z" fill="#576472"/>
<path d="M77.3642 0H82.7693C90.863 0.056 94.7558 4.004 94.7838 11.088C94.8118 17.122 91.6891 22.008 83.3014 22.078H77.3642V0ZM80.6409 19.32H82.5313C88.3985 19.32 91.4651 17.08 91.4651 11.074C91.4511 5.796 88.4125 2.772 82.8393 2.772C81.7611 2.772 80.6409 2.8 80.6409 2.8V19.32Z" fill="#576472"/>
<path d="M27.43 22.078C27.332 21.434 27.332 21.028 27.276 19.852C26.0438 21.616 24.4054 22.386 21.8149 22.386C18.4122 22.386 15.9477 20.72 15.9477 17.696C15.9477 14.21 19.2804 13.062 23.6073 12.474C24.6855 12.32 25.8897 12.194 26.9399 12.11C26.9399 8.90396 25.1616 7.93796 23.2992 7.93796C21.4368 7.93796 20.0785 9.25396 20.0785 10.948H17.0539C17.0539 7.65796 19.6444 5.45996 23.3552 5.45996C27.066 5.45996 29.9506 6.99996 29.9506 12.936V16.086C29.9506 18.718 30.0766 20.622 30.3566 22.106H27.43V22.078ZM19.3084 17.654C19.3084 19.166 20.5406 20.118 22.515 20.118C25.4136 20.118 26.9679 18.354 26.9679 15.204C26.9539 14.91 26.9679 14.63 26.9959 14.336C21.7169 14.882 19.3084 15.4 19.3084 17.654Z" fill="#576472"/>
</g>
<defs>
<clipPath id="clip0">
<rect width="136.5" height="28" fill="white" transform="translate(0.866699)"/>
</clipPath>
</defs>
</svg>

<svg fill="none" height="28" viewBox="0 0 138 28" width="138" xmlns="http://www.w3.org/2000/svg" xmlns:xlink="http://www.w3.org/1999/xlink"><clipPath id="a"><path d="m.866699 0h136.5v28h-136.5z"/></clipPath><g clip-path="url(#a)" fill="#576472"><path d="m4.1007 16.1979h-3.234001v5.88h3.234001z"/><path d="m13.0492 1.078c-1.7364-.924-2.9406-1.078-5.78319-1.078h-6.399311v13.384h6.371311c2.53452 0 4.42489-.154 6.09129-1.26 1.8203-1.204 2.7585-3.206 2.7585-5.516 0-2.506-1.1622-4.508-3.0386-5.53zm-5.06904 9.506h-3.8788v-7.714l3.65475-.028c3.33269-.042 4.99899 1.134 4.99899 3.794 0 2.856-2.0584 3.948-4.77494 3.948z"/><path d="m133.964 5.86617-3.081 8.73603c-.56 1.568-.84 2.464-1.358 3.976h-.056c-.406-1.302-.784-2.352-1.302-3.892l-2.983-8.83403h-3.585l6.204 16.21203c-.14.35-.28.714-.434 1.092-.519 1.26-1.751 2.086-3.109 2.086h-1.54v2.758h1.582c2.562 0 4.873-1.568 5.825-3.948 1.975-4.942 5.335-13.356 7.254-18.18603z"/><path d="m47.9444 18.9561c0 5.866-2.6886 9.044-8.1217 9.044-4.0468 0-6.4833-2.128-7.3515-5.334h3.2767c.5601 1.484 1.7363 2.814 4.1308 2.814 3.7108 0 5.027-2.31 5.027-6.706-.028 0-.028-.028-.056-.028-.7981 1.386-2.5905 2.618-5.4331 2.618-4.5649 0-7.4635-3.304-7.4635-7.938 0-4.816 3.1506-8.05 7.5055-8.05 2.8146 0 4.5089 1.204 5.4331 2.534-.028-.336-.028-.672-.028-1.022v-1.022h3.0807zm-12.6026-5.558c0 3.15 1.7643 5.404 4.789 5.404 2.7165 0 4.8169-1.918 4.8169-5.488 0-3.178-1.8483-5.306-4.8169-5.306-2.9687 0-4.789 2.114-4.789 5.39z"/><path d="m53.0553 14.7839c.126 2.842 1.9464 5.096 5.097 5.096 2.2265 0 3.3047-1.05 4.1309-2.436h3.1226c-.9242 2.926-3.4867 5.026-7.3795 5.026-4.999 0-8.1216-3.36-8.1216-8.428 0-5.06797 3.2346-8.63797 8.1216-8.63797 5.2791 0 7.7156 4.018 7.7156 8.37197v1.022zm9.4379-2.464c-.28-2.56197-1.8904-4.38197-4.5369-4.38197-2.5345 0-4.4809 1.666-4.789 4.38197z"/><path d="m70.741 5.86596v2.072c.5181-1.512 2.1004-2.478 3.9208-2.478.2661 0 .5321.014.7982.056v2.842c-.3641-.07-.7142-.098-1.0782-.098-2.9407 0-3.4868 2.15604-3.4868 5.40404v8.4h-3.1226v-13.30004c0-1.022 0-1.918-.028-2.898z"/><path d="m107.526 19.7541c-.84 1.386-2.408 2.716-5.153 2.716-3.7664 0-5.6148-2.31-5.6148-6.51v-10.09401h3.1086v8.91801c0 3.178 1.0502 5.096 3.5852 5.096 3.332 0 3.92-3.024 3.92-6.58v-7.43401h3.123v13.76201c0 .84 0 1.638.028 2.436h-2.997z"/><path d="m117.511 5.86601h3.024v2.408h-3.024v9.72999c0 1.54.77 2.002 1.974 2.002.252 0 .518-.028.77-.056v2.31c-.392.07-.798.112-1.204.126-2.871 0-4.691-.952-4.691-4.2v-9.91199h-2.451v-2.408h2.437v-4.382h3.165z"/><path d="m77.3642 0h5.4051c8.0937.056 11.9865 4.004 12.0145 11.088.028 6.034-3.0947 10.92-11.4824 10.99h-5.9372zm3.2767 19.32h1.8904c5.8672 0 8.9338-2.24 8.9338-8.246-.014-5.278-3.0526-8.302-8.6258-8.302-1.0782 0-2.1984.028-2.1984.028z"/><path d="m27.43 22.078c-.098-.644-.098-1.05-.154-2.226-1.2322 1.764-2.8706 2.534-5.4611 2.534-3.4027 0-5.8672-1.666-5.8672-4.69 0-3.486 3.3327-4.634 7.6596-5.222 1.0782-.154 2.2824-.28 3.3326-.364 0-3.20604-1.7783-4.17204-3.6407-4.17204s-3.2207 1.316-3.2207 3.01004h-3.0246c0-3.29004 2.5905-5.48804 6.3013-5.48804s6.5954 1.54 6.5954 7.47604v3.15c0 2.632.126 4.536.406 6.02h-2.9266zm-8.1216-4.424c0 1.512 1.2322 2.464 3.2066 2.464 2.8986 0 4.4529-1.764 4.4529-4.914-.014-.294 0-.574.028-.868-5.279.546-7.6875 1.064-7.6875 3.318z"/></g></svg>
